X: 1382
T: Muhayyer Seyir
C: Şefik Gürmeriç
O: Turkey
F: http://compmusic.upf.edu/node/140
N: muhayyer--seyir--sofyan--1--sefik_gurmeric
N: makam= muhayyer
N: form= seyir
N: usul= sofyan = 4/4
M: 4/4
L: 1/16
K: C _2/4B ^3/4f  
Q: 1/4=60
%%MIDI tuningsystem comma53
g2a4a2 d'4 c'2b2  | b3a ac'ba a8  | g2f2 g2a2 c'2b2 a2g2  | 
w:   |   |   | 
g2f2 f2e2 agfe d4  | z2e4f2 g2a2 =b2a2  | \
w:   |   | 
a2g4f2 f2e2 egfe  | 
w:   | 
e3d d2c2 c2d2 e4  | d4 e4 e4 a4  | g2=f2 e2d2 {e}dccB c4  | \
w:   |   |   | 
z4 B2c2 d4 e4  | 
w:   | 
d3c B2c2 B4 A4  | G4 AcBA A8  | |


